static/assets/img/icons/theme/home/library.svg

<svg height="24" viewBox="0 0 24 24" width="24" xmlns="http://www.w3.org/2000/svg"><g fill="none" fill-rule="evenodd"><path d="m0 0h24v24h-24z" opacity="0"/><g fill="#000"><path d="m5 3h1c.55228475 0 1 .44771525 1 1v16c0 .5522847-.44771525 1-1 1h-1c-.55228475 0-1-.4477153-1-1v-16c0-.55228475.44771525-1 1-1zm5 0h1c.5522847 0 1 .44771525 1 1v16c0 .5522847-.4477153 1-1 1h-1c-.55228475 0-1-.4477153-1-1v-16c0-.55228475.44771525-1 1-1z"/><rect height="18" opacity=".3" rx="1" transform="matrix(.94551858 -.32556815 .32556815 .94551858 -2.917918 6.454246)" width="3" x="16.325568" y="2.945519"/></g></g></svg>

<svg width="24px" height="24px" viewBox="0 0 24 24" version="1.1" xmlns="http://www.w3.org/2000/svg" xmlns:xlink="http://www.w3.org/1999/xlink">
    <title>Icon For Library</title>
    <g stroke="none" stroke-width="1" fill="none" fill-rule="evenodd">
        <rect opacity="0" x="0" y="0" width="24" height="24"></rect>
        <path d="M5,3 L6,3 C6.55228475,3 7,3.44771525 7,4 L7,20 C7,20.5522847 6.55228475,21 6,21 L5,21 C4.44771525,21 4,20.5522847 4,20 L4,4 C4,3.44771525 4.44771525,3 5,3 Z M10,3 L11,3 C11.5522847,3 12,3.44771525 12,4 L12,20 C12,20.5522847 11.5522847,21 11,21 L10,21 C9.44771525,21 9,20.5522847 9,20 L9,4 C9,3.44771525 9.44771525,3 10,3 Z" fill="#000000"></path>
        <rect fill="#000000" opacity="0.3" transform="translate(17.825568, 11.945519) rotate(-19.000000) translate(-17.825568, -11.945519) " x="16.3255682" y="2.94551858" width="3" height="18" rx="1"></rect>
    </g>
</svg>
